X:3051
T:Candy man
T:version 1
C:anon.
O:USA
R:Blues, swing feel
F:http://abc.musicaviva.com/tunes/usa/candy-man-1.abc
M:C
L:1/8
Q:1/4=154
K:C
"C"z2 GE GA2z|"C"z8|"C"z2 EC C2z2|"C"z8|
w:Can-dy-man,_ Can-dy-man,
"F"z2 GE GA2z|"F"z8|"C"z2 EC C2z2|"C"z8|
w:Can-dy-man,_ Can-dy-man,
"C"z2 GE GA2z|"C"z8|"C"z2 EC C2z2|"C"z4 z G, G, z|
w:Can-dy-man,_ Can-dy-man, Well, I
"F"A,C2A, CCD2|"C"EE EE G2 z G,|"G"E2 EG- GD D2|"C"C4 z4|]
w:do an-y-thing in this God All-migh-ty world to get my Can--dy-man home.
W:
W:Candyman, Candyman (3x)
W:  Well, I do anything in this God Allmighty world
W:  to get my Candyman home.
W:
W:Big legged Ida, she's a mighty fine girl. (6x)
W:  I do anything in this God Allmighty world
W:  to get my Candyman home.
W:
W:Run and get the pitcher get your baby some beer (6x)
W:  I do anything in this God Allmighty world
W:  to get my Candyman home.
W:
W:
W:  From Musica Viva - http://www.musicaviva.com
W:  the Internet center for free sheet music downloads.


